icons/chat-follow-up-line.svg

<svg viewBox="0 0 24 24" fill="currentColor" xmlns="http://www.w3.org/2000/svg">
    <path d="M21 3C21.5523 3 22 3.44772 22 4V18C22 18.5523 21.5523 19 21 19H6.455L2 22.5V4C2 3.44772 2.44772 3 3 3H21ZM20 5H4V18.385L5.76333 17H20V5ZM17 7V15H15V7H17ZM11 8V9.999L13 10V12L11 11.999V14H9V11.999L7 12V10L9 9.999V8H11Z"/>
</svg>

<svg xmlns="http://www.w3.org/2000/svg" viewBox="0 0 24 24">
    <g>
        <path fill="none" d="M0 0H24V24H0z"/>
        <path d="M21 3c.552 0 1 .448 1 1v14c0 .552-.448 1-1 1H6.455L2 22.5V4c0-.552.448-1 1-1h18zm-1 2H4v13.385L5.763 17H20V5zm-3 2v8h-2V7h2zm-6 1v1.999L13 10v2l-2-.001V14H9v-2.001L7 12v-2l2-.001V8h2z"/>
    </g>
</svg>
